!!!!SEGMENT: pl-wtm--r-1227--021_lodwigowski-edward-stefan--zwiesc-mie-widze-masz-ochote.krn
!!!cenid: 18xx:1961
!!!COM: Łodwigowski, Edward Stefan
!!!COM-rismid: pe30111147
!!!CDT: 1815/08/14-1895/11/12
!!!CNT: Polish
!!!OTL: Zwieść mię widzę masz ochotę
!!!PDT:
!!!AGN:
!!!SMS-siglum: PL-Wtm
!!!SMS-shelfmark: R 1227
!!!SMS-shelfwork: 021 W
!!!SMS-variant:
!!!SMS-altvar:
!!!NIFC-rismid: 1001084157
!!!URL-scan: http://repozytorium.nifc.pl/skany/pl-wtm-nut--r1226-1227
!!!ONB-nifc: UWAGA: No. 92
!!!OMD: Moderato
**kern	**fing	**kern	**fing	**dynam
*part1	*part1	*part1	*part1	*part1
*staff2	*staff2	*staff1	*staff1	*
*I"Fortepian	*	*I"Fortepian	*	*
*clefF4	*	*clefG2	*	*
*k[f#]	*	*k[f#]	*	*
*G:	*	*G:	*	*
*M3/4	*	*M3/4	*	*
*all\right	*	*all\right	*	*
=1	=1	=1	=1	=1
*^	*	*	*	*
*2\right	*2\right	*below	*	*	*
!	!	!	!LO:TX:a:i:t=Zwieść mię widzę masz ochotę. J. Nowakowskiego.	!	!
!	!LO:N:vis=2	!	!LO:TX:a:Bi:t=No 92.	!	!
2.G/	4G\	5	(8b\L	2	p
.	.	.	8cc\J	3	.
.	4d 4B\	.	4.dd\	1	.
.	4d 4B\	.	.	.	.
.	.	.	8ee\	.	.
=2	=2	=2	=2	=2	=2
!	!LO:N:vis=2	!	!	!	!
2.G/	4G\	.	8ff#\L	.	<
.	.	.	8gg\J	.	.
.	4d 4B\	.	4aa\	.	.
.	4d 4B\	.	4gg\)	.	[
=3	=3	=3	=3	=3	=3
!	!LO:N:vis=2	!	!	!	!
2.G/	4G\	.	(8ee\L	.	.
.	.	.	8cc\J	.	.
!	!LO:N:n=1:vis=4.	!	!	!	!
.	4e 4c\	.	4.gg\	.	.
.	4e 4c\	.	.	.	.
.	.	.	8ee\	.	.
=4	=4	=4	=4	=4	=4
!	!LO:N:vis=2	!	!	!	!
2.G/	4G\	.	8ee\L	.	.
.	.	.	8dd\J	.	.
.	.	.	.	.	>
.	4e 4A#X\	.	4cc#X\	2	.
.	4d 4B\	.	4dd\)	3	]]
=5	=5	=5	=5	=5	=5
!	!LO:N:vis=2	!	!	!	!
2.D/	4D\	.	(8ee\L	4	.
.	.	.	8dd\J)	1	.
.	4c 4F#\	.	(4.ccc^\	.	sf
.	4c 4A\	.	.	.	.
.	.	.	8ff#\)	2	.
=6	=6	=6	=6	=6	=6
!	!LO:N:vis=2	!	!	!	!
2.G/	4G\	.	(8aa\L	4	.
.	.	.	8gg\J	.	.
.	4d 4B\	.	4dd\	1	.
.	4d 4B\	.	4b\)	2	.
!!LO:LB:g=original
=7	=7	=7	=7	=7	=7
!	!LO:N:vis=2	!	!	!	!
2.D/	4D\	.	(8a\L	1	.
.	.	.	8b\J	3	.
!	!	!	!LO:TUP:a:problem:klamra łukowa	!	!
.	4c 4F#\	.	12cc\L	4	.
.	.	.	12dd\	.	.
.	.	.	12cc\J	.	.
.	4c 4F#\	.	8b\L	.	.
.	.	.	8a\J	.	.
=8	=8	=8	=8	=8	=8
!	!LO:N:vis=2	!	!	!	!
2.G/	4G\	.	8g/L	1	<
.	.	.	8b/J	2	.
.	4c#X 4A#X\	.	4.ee\	5	[
.	.	.	.	.	>
.	4d 4B\	.	.	.	.
.	.	.	8dd\)	1	]
=9	=9	=9	=9	=9	=9
!	!LO:N:vis=2	!	!	!	!
2.D/	4D\	.	(8ee\L	2	.
.	.	.	8dd\J)	.	.
.	4c 4F#\	.	(4.ccc^\	.	sf
.	4c 4A\	.	.	.	.
.	.	.	8ff#\)	2	.
=10	=10	=10	=10	=10	=10
!	!LO:N:vis=2	!	!	!	!
2.G/	4G\	.	(8aa\L	4	.
.	.	.	8gg\J	.	.
.	4d 4B\	.	4dd\	1	.
.	4d 4B\	.	4b\)	2	.
=11	=11	=11	=11	=11	=11
!	!LO:N:vis=2	!	!	!	!
2.A/	4A\	.	8.a/L	.	.
.	.	.	16a/Jk	.	.
.	.	.	(8qcc#X/	3	.
.	4g 4d\	.	(4.b/)	.	.
.	4g 4c#X\	.	.	.	.
.	.	.	8a/)	.	.
=12	=12	=12	=12	=12	=12
!	!LO:N:vis=2	!	!	!	!
2.d/	4d\	.	8f#/L	2	.
.	.	.	8a/J	1	<
.	4a 4f#\	.	4dd'\	2	.
.	4a 4f#\	.	4ff#'\	4	[[
*v	*v	*	*	*	*
=13	=13	=13	=13	=13
8c#X 8A|\	.	4.aa;\	.	sf
8r	.	.	.	.
!	!	!	!	!LO:DY:b=2
4c# 4A;\	.	.	.	sf
.	.	(8aa\L	.	.
!	!	!LO:TX:b:i:t=ralen.	!	!
(8dL 8B\	.	8gg#X\	.	.
8eJ 8c#\)	.	8ggn\J)	.	.
!!LO:LB:g=original
=14	=14	=14	=14	=14
*	*above	*2\right	*	*
4f# 4d'\	4 2	(2ff#\	.	.
4D'\	.	.	.	.
4r	.	4a\)	.	.
=15	=15	=15	=15	=15
*^	*	*	*	*
!	!LO:N:vis=2	!	!	!	!
2.AA/	4AA\	.	(8ff#\L	4	.
.	.	.	(16qqee/LL	.	.
.	.	.	16qqff#/JJ	.	.
.	.	.	8ee\)	.	.
.	4G 4C#X\	.	8dd#X\	.	.
.	.	.	8ee\J	.	.
*	*	*	*	*below	*
.	4G 4C#;>\	.	8.gg;\L	4	.
.	.	.	16ff#\Jk	.	.
*v	*v	*	*	*	*
=16	=16	=16	=16	=16
4F# 4D'\	.	2dd\)	.	.
!	!	!LO:TX:b:i:t=lento.	!	!
4DD'/	.	.	.	.
*	*	*	*above	*
4r	.	(8cc#X\L	4	.
.	.	8ccn\J)	3	.
=17	=17	=17	=17	=17
*^	*	*	*	*
!	!LO:N:vis=2	!	!LO:TX:a:i:t=a tempo.	!	!
2.G/	4G\	.	(8b\L	2	.
.	.	.	8cc\J	.	.
.	4d 4B\	.	4.dd\	1	.
.	4d 4B\	.	.	.	.
.	.	.	8ee\	.	<
=18	=18	=18	=18	=18	=18
!	!LO:N:vis=2	!	!	!	!
2.G/	4G\	.	8ff#\L	.	.
.	.	.	8gg\J	.	.
.	4d 4B\	.	4aa\	.	.
.	4d 4B\	.	4gg\)	.	[
=19	=19	=19	=19	=19	=19
!	!LO:N:vis=2	!	!	!	!
2.G/	4G\	.	8ee\L	.	.
.	.	.	8cc\J	.	.
.	4e 4c\	.	4.gg\	.	.
.	4e 4c\	.	.	.	.
.	.	.	8ee\	.	.
=20	=20	=20	=20	=20	=20
!	!LO:N:vis=2	!	!	!	!
2.G/	4G\	.	8ee\L	.	.
.	.	.	8dd\J	.	>
.	4e 4A#X\	.	4cc#X\	2	.
.	4d 4B\	.	4dd\	3	]]
!!LO:LB:g=original
=21	=21	=21	=21	=21	=21
!	!LO:N:vis=2	!	!	!	!
2.D/	4D\	.	(8ee\L	4	.
.	.	.	8dd\J)	1	.
.	4c 4F#\	.	(4.ccc^\	.	sf
.	4c 4A\	.	.	.	.
.	.	.	8ff#\)	.	.
=22	=22	=22	=22	=22	=22
!	!LO:N:vis=2	!	!	!	!
2.G/	4G\	.	(8aa\L	4	.
.	.	.	8gg\J	.	.
.	4d 4B\	.	4dd\	1	.
.	4d 4B\	.	4b\)	2	.
=23	=23	=23	=23	=23	=23
!	!LO:N:vis=2	!	!	!	!
2.D/	4D\	.	(8a\L	1	.
.	.	.	8b\J	3	.
!	!	!	!LO:TUP:a:problem:klamra łukowa, łuczek zamiast numeru	!	!
.	4c 4F#\	.	12cc\L	.	.
.	.	.	12dd\	.	.
.	.	.	12cc\J	.	.
.	4c 4F#\	.	8b\L	.	.
.	.	.	8a\J	.	.
=24	=24	=24	=24	=24	=24
!	!LO:N:vis=2	!	!	!	!
2.G/	4G\	.	8g/L	.	<
.	.	.	8b/J	.	.
.	4c#X 4A#X\	.	4.ee\	.	[
.	.	.	.	.	>
.	4d 4B\	.	.	.	.
.	.	.	8dd\)	1	]]
=25	=25	=25	=25	=25	=25
!	!LO:N:vis=2	!	!	!	!
2.D/	4D\	.	((8ee\L	.	.
.	.	.	8dd\J)	.	.
.	4c 4F#\	.	4.ccc^\	.	sf
.	4c 4A\	.	.	.	.
.	.	.	8ff#\	.	.
=26	=26	=26	=26	=26	=26
!	!LO:N:vis=2	!	!	!	!
2.G/	4G\	.	8aa\L	.	.
.	.	.	8gg\J	.	.
.	4d 4B\	.	4dd\	.	.
.	4d 4B\	.	4b\)	.	.
=27	=27	=27	=27	=27	=27
!	!LO:N:vis=2	!	!	!	!
2.D/	4D\	.	(8a\L	.	.
.	.	.	8b\J	.	.
!	!	!	!LO:TUP:a:problem:klamra łukowa, łuczek zamiast numeru	!	!
.	4c 4F#\	.	12cc\L	.	.
.	.	.	12dd\	.	.
.	.	.	12cc\J	.	.
.	4c 4F#\	.	8b\L	.	.
.	.	.	8a\J	.	.
*v	*v	*	*	*	*
=28	=28	=28	=28	=28
4B 4G'\	.	2g/)	2	.
4GG'/	.	.	.	.
4r	.	4r	.	.
==	==	==	==	==
*-	*-	*-	*-	*-
!!!system-decoration: {p1}
!!!RDF**kern: > = above
!!!RDF**kern: < = below
!!!RDF**kern: | = vertical stroke
!!!ENC: Andrzej Kubiczek
!!!END: 2021-05-02
!!!ENC: Marcin Jachim
!!!END: 2021-04-17
